svg/300/outlined/lists-fill.svg

<svg xmlns="http://www.w3.org/2000/svg" width="48" height="48" viewBox="0 -960 960 960"><path d="M100.001-180.001v-131.074h131.074v131.074H100.001Zm211.845 0v-131.074h548.153v131.074H311.846ZM100.001-414.155v-131.69h131.074v131.69H100.001Zm211.845 0v-131.69h548.153v131.69H311.846Zm-211.845-234.77v-131.074h131.074v131.074H100.001Zm211.845 0v-131.074h548.153v131.074H311.846Z"/></svg>

<svg xmlns="http://www.w3.org/2000/svg" width="48" height="48" viewBox="0 -960 960 960"><path d="M100-180v-131.08h131.08V-180H100Zm211.85 0v-131.08H860V-180H311.85ZM100-414.16v-131.68h131.08v131.68H100Zm211.85 0v-131.68H860v131.68H311.85ZM100-648.92V-780h131.08v131.08H100Zm211.85 0V-780H860v131.08H311.85Z"/></svg>
